flaticon/symbols/sulphur-1.svg

<svg xmlns="http://www.w3.org/2000/svg" width="32" height="32" viewBox="0 0 24 24">
    <path d="M 12.640625 1.929688 C 12.527344 1.730469 12.3125 1.605469 12.082031 1.605469 C 11.851562 1.605469 11.636719 1.730469 11.527344 1.925781 L 4.121094 14.476562 L 4.117188 14.480469 C 4.023438 14.644531 4.023438 14.84375 4.117188 15.003906 C 4.210938 15.164062 4.386719 15.265625 4.570312 15.265625 L 19.429688 15.265625 C 19.613281 15.265625 19.789062 15.164062 19.882812 15.003906 C 19.976562 14.84375 19.976562 14.640625 19.882812 14.480469 Z M 5.0625 14.460938 L 12.082031 2.566406 L 18.945312 14.460938 Z M 5.0625 14.460938"/>
    <path d="M 21.273438 13.679688 L 14.03125 1.125 C 13.632812 0.429688 12.886719 0 12.082031 0 C 11.28125 0 10.53125 0.433594 10.132812 1.125 L 2.722656 13.679688 C 2.160156 14.664062 2.46875 15.921875 3.429688 16.542969 C 3.765625 16.757812 4.171875 16.871094 4.609375 16.871094 L 11.28125 16.871094 L 11.28125 17.273438 L 9.671875 17.273438 C 9.007812 17.273438 8.46875 17.816406 8.46875 18.480469 C 8.46875 19.144531 9.007812 19.683594 9.671875 19.683594 L 11.28125 19.683594 L 11.28125 20.253906 C 10.894531 20.183594 10.492188 20.289062 10.222656 20.554688 C 9.992188 20.78125 9.867188 21.082031 9.867188 21.402344 C 9.867188 21.722656 9.992188 22.023438 10.222656 22.25 L 11.632812 23.652344 C 11.867188 23.882812 12.171875 24 12.480469 24 C 12.785156 24 13.09375 23.882812 13.328125 23.652344 L 14.695312 22.292969 C 15.042969 21.945312 15.167969 21.433594 15.011719 20.992188 C 14.886719 20.640625 14.625 20.386719 14.277344 20.28125 C 14.089844 20.222656 13.886719 20.214844 13.691406 20.25 L 13.691406 19.683594 L 15.296875 19.683594 C 15.960938 19.683594 16.503906 19.144531 16.503906 18.480469 C 16.503906 17.816406 15.960938 17.273438 15.296875 17.273438 L 13.691406 17.273438 L 13.691406 16.871094 L 19.390625 16.871094 C 19.832031 16.871094 20.238281 16.757812 20.570312 16.542969 C 21.53125 15.917969 21.839844 14.660156 21.273438 13.679688 Z M 20.132812 15.867188 C 19.929688 16 19.675781 16.070312 19.390625 16.070312 L 13.289062 16.070312 C 13.066406 16.070312 12.886719 16.25 12.886719 16.46875 L 12.886719 17.675781 C 12.886719 17.898438 13.066406 18.078125 13.289062 18.078125 L 15.296875 18.078125 C 15.519531 18.078125 15.699219 18.257812 15.699219 18.480469 C 15.699219 18.699219 15.519531 18.882812 15.296875 18.882812 L 13.289062 18.882812 C 13.066406 18.882812 12.886719 19.058594 12.886719 19.28125 L 12.886719 20.769531 C 12.886719 20.941406 12.984375 21.097656 13.136719 21.175781 C 13.292969 21.253906 13.480469 21.238281 13.621094 21.132812 C 13.742188 21.042969 13.90625 21.007812 14.042969 21.050781 C 14.144531 21.082031 14.214844 21.152344 14.253906 21.261719 C 14.308594 21.410156 14.257812 21.59375 14.128906 21.722656 L 12.761719 23.082031 C 12.605469 23.238281 12.355469 23.238281 12.199219 23.082031 L 10.789062 21.679688 C 10.714844 21.605469 10.671875 21.507812 10.671875 21.402344 C 10.671875 21.296875 10.714844 21.199219 10.789062 21.125 C 10.851562 21.0625 10.945312 21.035156 11.042969 21.035156 C 11.148438 21.035156 11.261719 21.066406 11.351562 21.136719 C 11.496094 21.238281 11.679688 21.253906 11.835938 21.175781 C 11.988281 21.097656 12.082031 20.941406 12.082031 20.769531 L 12.082031 19.28125 C 12.082031 19.058594 11.902344 18.882812 11.683594 18.882812 L 9.671875 18.882812 C 9.453125 18.882812 9.273438 18.699219 9.273438 18.480469 C 9.273438 18.257812 9.453125 18.078125 9.671875 18.078125 L 11.683594 18.078125 C 11.902344 18.078125 12.082031 17.898438 12.082031 17.675781 L 12.082031 16.46875 C 12.082031 16.25 11.902344 16.070312 11.683594 16.070312 L 4.609375 16.070312 C 4.328125 16.070312 4.070312 16 3.867188 15.871094 C 3.265625 15.480469 3.070312 14.695312 3.417969 14.085938 L 10.828125 1.527344 C 11.085938 1.082031 11.566406 0.804688 12.082031 0.804688 C 12.597656 0.804688 13.078125 1.082031 13.335938 1.527344 L 20.578125 14.078125 C 20.886719 14.617188 20.808594 15.433594 20.132812 15.867188 Z M 20.132812 15.867188"/>
</svg>

<svg xmlns="http://www.w3.org/2000/svg" width="32" height="32" viewBox="0 0 24 24">
    <path d="M12.64 1.93a.645.645 0 0 0-.558-.325.638.638 0 0 0-.555.32L4.121 14.478l-.004.003a.522.522 0 0 0 .453.786h14.86a.522.522 0 1 0 .453-.785zM5.063 14.46l7.02-11.894 6.863 11.895zm0 0"/>
    <path d="M21.273 13.68L14.031 1.125A2.248 2.248 0 0 0 12.082 0c-.8 0-1.55.434-1.95 1.125L2.723 13.68a2.145 2.145 0 0 0 .708 2.863c.336.215.742.328 1.18.328h6.671v.402h-1.61c-.663 0-1.202.543-1.202 1.207 0 .665.539 1.204 1.203 1.204h1.61v.57c-.387-.07-.79.035-1.06.3-.23.227-.355.528-.355.848 0 .32.125.621.356.848l1.41 1.402a1.204 1.204 0 0 0 1.695 0l1.367-1.359c.348-.348.473-.86.317-1.3a1.112 1.112 0 0 0-.735-.712 1.238 1.238 0 0 0-.586-.031v-.566h1.606c.664 0 1.207-.54 1.207-1.204a1.21 1.21 0 0 0-1.207-1.207H13.69v-.402h5.7c.441 0 .847-.113 1.18-.328a2.142 2.142 0 0 0 .702-2.863zm-1.14 2.187a1.344 1.344 0 0 1-.742.203h-6.102a.401.401 0 0 0-.402.399v1.207c0 .222.18.402.402.402h2.008a.402.402 0 1 1 0 .805h-2.008a.398.398 0 0 0-.402.398v1.489a.458.458 0 0 0 .734.363.487.487 0 0 1 .422-.082.317.317 0 0 1 .21.21c.056.15.005.333-.124.462l-1.367 1.359a.396.396 0 0 1-.563 0l-1.41-1.402a.39.39 0 0 1-.117-.278.39.39 0 0 1 .117-.277.355.355 0 0 1 .254-.09c.105 0 .219.031.309.102a.47.47 0 0 0 .484.039.454.454 0 0 0 .246-.406V19.28a.398.398 0 0 0-.398-.398H9.672a.403.403 0 0 1-.399-.403c0-.222.18-.402.399-.402h2.012c.218 0 .398-.18.398-.402v-1.207a.4.4 0 0 0-.398-.399H4.609c-.28 0-.539-.07-.742-.199a1.342 1.342 0 0 1-.449-1.785l7.41-12.559a1.453 1.453 0 0 1 1.254-.722c.516 0 .996.277 1.254.722l7.242 12.551c.309.54.23 1.356-.445 1.79zm0 0"/>
</svg>
